public/images/marquee/zendesk.svg

<svg xmlns="http://www.w3.org/2000/svg" fill="none" viewBox="0 0 53 37">
  <path fill="#CFD1D7" d="M25.683 5.62934V21.3164H12.292L25.683 5.62934ZM25.683 0c0 1.72303-.7054 3.37548-1.961 4.59385-1.2557 1.21836-2.9587 1.90283-4.7345 1.90283-1.7758 0-3.4788-.68447-4.7345-1.90283C12.9974 3.37548 12.292 1.72303 12.292 0h13.391Zm2.2061 21.3178c0-1.723.7054-3.3754 1.9611-4.5938 1.2556-1.2184 2.9587-1.9028 4.7344-1.9028 1.7758 0 3.4788.6844 4.7345 1.9028 1.2556 1.2184 1.9611 2.8708 1.9611 4.5938H27.8891Zm0-5.6293V0H41.283L27.8891 15.6871v.0014Zm7.4891 19.0508c.6887.0149 1.3555-.2349 1.8551-.695l.9197.9633c-.6074.606-1.4497 1.0563-2.759 1.0563-2.2447 0-3.6959-1.4455-3.6959-3.3998-.0091-.4479.0749-.893.2469-1.3087.1721-.4158.4287-.7936.7545-1.111.3258-.3175.7141-.568 1.1419-.7366.4277-.1686.8861-.2519 1.3477-.2449 2.229 0 3.4925 1.6457 3.3808 3.928h-5.2688c.1862.9479.8738 1.5526 2.0728 1.5526m1.6045-2.6409c-.1433-.8855-.6877-1.5373-1.7764-1.5373-1.0127 0-1.719.5559-1.9009 1.5373h3.6787-.0014ZM.783203 34.6656 4.8372 30.6681H.879181v-1.2537H6.71808v1.2787l-4.054 3.9962h4.1113v1.2551H.783203v-1.2788Zm10.543297.0723c.6886.015 1.3554-.2349 1.855-.695l.9197.9633c-.6074.606-1.4497 1.0563-2.759 1.0563-2.24473 0-3.69586-1.4455-3.69586-3.3998-.0091-.4479.07488-.893.24692-1.3087.17203-.4158.42861-.7936.75441-1.111.32581-.3175.71417-.568 1.14192-.7366.42771-.1686.88611-.2519 1.34781-.2449 2.2289 0 3.4924 1.6457 3.3807 3.928H9.25218c.18623.948.87382 1.5526 2.07282 1.5526m1.6044-2.6409c-.1432-.8854-.6876-1.5373-1.7763-1.5373-1.0128 0-1.71899.5559-1.90092 1.5373h3.67872-.0015Zm10.347.5601c0-2.0849 1.6087-3.3971 3.3807-3.3971.4252-.0054.8465.0794 1.2343.2487.3878.1693.7327.4189 1.0105.7313v-3.853h1.4325v9.5351h-1.4325v-.8993c-.2725.3252-.6169.5868-1.0077.7653-.3908.1786-.818.2695-1.25.2661-1.719 0-3.3663-1.3205-3.3663-3.3957m5.7042-.0139c-.0113-.4077-.1462-.8031-.3878-1.1368-.2417-.3336-.5794-.5908-.9709-.7392-.3914-.1484-.8193-.1816-1.2301-.0953-.4108.0863-.7862.2883-1.0794.5805-.2931.2923-.491.6619-.5687 1.0627-.0778.4008-.0321.8149.1315 1.1906.1635.3757.4376.6962.7879.9216.3503.2253.7613.3455 1.1816.3453 1.232 0 2.1345-.9535 2.1345-2.1294m10.526 1.8904 1.2979-.6533c.1716.2968.4234.5424.7284.7105.305.168.6515.2521 1.002.243.8108 0 1.232-.4031 1.232-.8618 0-.5226-.7836-.6394-1.6359-.8103-1.146-.2363-2.3393-.6019-2.3393-1.946 0-1.0327 1.0128-1.9876 2.6072-1.9737 1.2563 0 2.1917.4837 2.7217 1.2648l-1.2033.6394c-.1662-.2389-.3925-.4327-.6575-.5631-.2649-.1303-.5598-.1929-.8566-.1819-.7707 0-1.1632.3656-1.1632.7839 0 .4698.6217.6005 1.5958.8104 1.1087.2363 2.3636.5879 2.3636 1.9459 0 .9007-.8108 2.1155-2.7303 2.103-1.4039 0-2.3923-.549-2.961-1.515m9.5834-1.5109-1.136 1.2023v1.6958h-1.4325V26.387h1.4325v6.2451l3.0413-3.2386h1.7448l-2.6359 2.7938 2.7046 3.7363h-1.6216l-2.0957-2.8995h-.0015Zm-30.1442-3.7612c-1.7047 0-3.13 1.0702-3.13 2.8494v3.8154h1.4611v-3.6389c0-1.0703.6346-1.7124 1.719-1.7124s1.6231.6394 1.6231 1.7124v3.6389h1.4525v-3.8154c0-1.7764-1.4325-2.8494-3.13-2.8494"/>
</svg>

<svg width="53" height="37" viewBox="0 0 53 37" fill="none" xmlns="http://www.w3.org/2000/svg">
<path d="M25.683 5.62934V21.3164H12.292L25.683 5.62934ZM25.683 0C25.683 1.72303 24.9776 3.37548 23.722 4.59385C22.4663 5.81221 20.7633 6.49668 18.9875 6.49668C17.2117 6.49668 15.5087 5.81221 14.253 4.59385C12.9974 3.37548 12.292 1.72303 12.292 0L25.683 0ZM27.8891 21.3178C27.8891 19.5948 28.5945 17.9424 29.8502 16.724C31.1058 15.5056 32.8089 14.8212 34.5846 14.8212C36.3604 14.8212 38.0634 15.5056 39.3191 16.724C40.5747 17.9424 41.2802 19.5948 41.2802 21.3178H27.8891ZM27.8891 15.6885V0H41.283L27.8891 15.6871V15.6885ZM35.3782 34.7393C36.0669 34.7542 36.7337 34.5044 37.2333 34.0443L38.153 35.0076C37.5456 35.6136 36.7033 36.0639 35.394 36.0639C33.1493 36.0639 31.6981 34.6184 31.6981 32.6641C31.689 32.2162 31.773 31.7711 31.945 31.3554C32.1171 30.9396 32.3737 30.5618 32.6995 30.2444C33.0253 29.9269 33.4136 29.6764 33.8414 29.5078C34.2691 29.3392 34.7275 29.2559 35.1891 29.2629C37.4181 29.2629 38.6816 30.9086 38.5699 33.1909H33.3011C33.4873 34.1388 34.1749 34.7435 35.3739 34.7435M36.9784 32.1026C36.8351 31.2171 36.2907 30.5653 35.202 30.5653C34.1893 30.5653 33.483 31.1212 33.3011 32.1026H36.9798H36.9784ZM0.783203 34.6656L4.8372 30.6681H0.879181V29.4144H6.71808V30.6931L2.66408 34.6893H6.77538V35.9444H0.783203V34.6656ZM11.3265 34.7379C12.0151 34.7529 12.6819 34.503 13.1815 34.0429L14.1012 35.0062C13.4938 35.6122 12.6515 36.0625 11.3422 36.0625C9.09747 36.0625 7.64634 34.617 7.64634 32.6627C7.63724 32.2148 7.72122 31.7697 7.89326 31.354C8.06529 30.9382 8.32187 30.5604 8.64767 30.243C8.97348 29.9255 9.36184 29.675 9.78959 29.5064C10.2173 29.3378 10.6757 29.2545 11.1374 29.2615C13.3663 29.2615 14.6298 30.9072 14.5181 33.1895H9.25218C9.43841 34.1375 10.126 34.7421 11.325 34.7421M12.9294 32.1012C12.7862 31.2158 12.2418 30.5639 11.1531 30.5639C10.1403 30.5639 9.43411 31.1198 9.25218 32.1012H12.9309H12.9294ZM23.2764 32.6613C23.2764 30.5764 24.8851 29.2642 26.6571 29.2642C27.0823 29.2588 27.5036 29.3436 27.8914 29.5129C28.2792 29.6822 28.6241 29.9318 28.9019 30.2442V26.3912H30.3344V35.9263H28.9019V35.027C28.6294 35.3522 28.285 35.6138 27.8942 35.7923C27.5034 35.9709 27.0762 36.0618 26.6442 36.0584C24.9252 36.0584 23.2779 34.7379 23.2779 32.6627M28.9821 32.6488C28.9708 32.2411 28.8359 31.8457 28.5943 31.512C28.3526 31.1784 28.0149 30.9212 27.6234 30.7728C27.232 30.6244 26.8041 30.5912 26.3933 30.6775C25.9825 30.7638 25.6071 30.9658 25.3139 31.258C25.0208 31.5503 24.8229 31.9199 24.7452 32.3207C24.6674 32.7215 24.7131 33.1356 24.8767 33.5113C25.0402 33.887 25.3143 34.2075 25.6646 34.4329C26.0149 34.6582 26.4259 34.7784 26.8462 34.7782C28.0782 34.7782 28.9807 33.8247 28.9807 32.6488M39.5067 34.5392L40.8046 33.8859C40.9762 34.1827 41.228 34.4283 41.533 34.5964C41.838 34.7644 42.1845 34.8485 42.535 34.8394C43.3458 34.8394 43.767 34.4363 43.767 33.9776C43.767 33.455 42.9834 33.3382 42.1311 33.1673C40.9851 32.931 39.7918 32.5654 39.7918 31.2213C39.7918 30.1886 40.8046 29.2337 42.399 29.2476C43.6553 29.2476 44.5907 29.7313 45.1207 30.5124L43.9174 31.1518C43.7512 30.9129 43.5249 30.7191 43.2599 30.5887C42.995 30.4584 42.7001 30.3958 42.4033 30.4068C41.6326 30.4068 41.2401 30.7724 41.2401 31.1907C41.2401 31.6605 41.8618 31.7912 42.8359 32.0011C43.9446 32.2374 45.1995 32.589 45.1995 33.947C45.1995 34.8477 44.3887 36.0625 42.4692 36.05C41.0653 36.05 40.0769 35.501 39.5082 34.535M49.0916 33.0241L47.9556 34.2264V35.9222H46.5231V26.387H47.9556V32.6321L50.9969 29.3935H52.7417L50.1058 32.1873L52.8104 35.9236H51.1888L49.0931 33.0241H49.0916ZM18.9474 29.2629C17.2427 29.2629 15.8174 30.3331 15.8174 32.1123V35.9277H17.2785V32.2888C17.2785 31.2185 17.9131 30.5764 18.9975 30.5764C20.0819 30.5764 20.6206 31.2158 20.6206 32.2888V35.9277H22.0731V32.1123C22.0731 30.3359 20.6406 29.2629 18.9431 29.2629" fill="#CFD1D7"/>
</svg>
